X:1
T:McEwan, 87.87.77.77
T:William McEwan, 1913
T:McEwan, 87.87.77.77
T:Public Domain
C:William McEwan, 1913
Z:Public Domain
%%score 1 ( 2 3 )
L:1/8
M:3/4
K:Ab
V:1 treble 
V:2 bass 
V:3 bass 
V:1
 [Ec][=D=B] | [Ec]3 [CE] [DF][Fd] | [Ec]2 [CA]2 [Ec][Fd] | [Ec]3 [DB] [DE][DB] | [CA]4 [Ec][=D=B] | %5
 [Ec]3 [CE] [DF][Fd] | [Ec]2 [CA]2 [Ec][Fd] | [Ec]3 [DB] [Ec][DB] | [CA]4 [CA][EG] | %9
 [DF]3 [DA] [Fd][_FA] | [Ec]4 [Ae][Af] | [Ae]3 [Ec] [=DB][DA] | [EB]4 [Ge][Gd] | %13
 [Ac]3 [Ac] [Ad][Af] | [Ae]4 [CA][=DB] | [Ec]2 [Fd]2 [Ec][DB] | [CA]4 |] %17
V:2
 z2 | (A,,[E,A,]) [E,A,]2 [D,A,]2 | (A,,[E,A,]) [E,A,]2 [E,A,]2 | (E,,[E,A,] [E,A,]2) [E,G,]2 | %4
 ([A,,E,C][A,,F,D] [A,,E,C]2) z2 | (A,,[E,A,] [E,A,]2) [D,A,]2 | (A,,[E,A,]) [E,A,]2 [E,A,]2 | %7
 (E,,[E,G,B,] [E,G,B,]2) [E,G,B,]2 | ([A,,E,C][A,,F,D] [A,,E,C]2) [A,,A,][C,A,] | %9
 [D,A,]3 [D,A,] [D,A,][D,A,] | [A,,A,]4 [A,C][A,D] | [A,C]3 A, [F,A,][B,,B,] | %12
 [E,G,]4 [E,B,][E,F] | [A,E]3 [A,E] [A,F][A,D] | [A,C]4 [F,A,][F,A,] | %15
 [E,A,]2 [E,G,]2 [E,A,][E,G,] | [A,,A,]4 |] %17
V:3
 x2 | x6 | x6 | x6 | x6 | x6 | x6 | x6 | x6 | x6 | x6 | x3 A, x2 | x6 | x6 | x6 | x6 | x4 |] %17

